X:84
T:84 The Troublesome Cossack
C:Welch MS
N:in STD 1st 4 beats of B music have 2 grace notes running up to them
I:abc2nwc
M:6/8
L:1/8
K:G
D|B3/2c/2B AGA|G2D DEF|G2B GBd|c2A A2D|
B3/2 c/2BA G A|G2D DEF|GBd cAF|G2B G2:|
D|B2G B2G|c2A c2A|d2d dBG|AFD DEF|
BAG BAG|ABc ABc|dBG DEF|GdB G2:|


